!!!COM: Music21
!!!OTL: Pasacorredoiras de Vilar de Enfesta
!!!OMV: pezas_pasacorredoiras_pasacorredoiras-de-vilar-de-enfesta_pasacorredoiras-de-vilar-de-enfesta-partitura.musicxml
**kern
*I"Gaita
*I'Bag
*clefG^2
*k[]
*M2/4
*MM120
=1
!LO:TX:a:t=[quarter]=120
4r
8cccL
8bbJ
=||
8aaL
8ggJ
8aaL
8bbJ
=
8cccL
8ggJ
8cccL
8bbJ
=
8aaL
8ggJ
8ffL
8eeJ
=
4dd
8cccL
8bbJ
=
8aaL
8ggJ
8aaL
8bbJ
=
8cccL
8ggJ
8ccL
8ddJ
=
8ee-XL
8ddJ
8ccL
8bJ
=
4cc
8ccL
8eeJ
=
8eeL
8ddJ
8ffL
8eeJ
!!linebreak:original
=
4ddT
8ddL
8ffJ
=
8ffL
8eeJ
8aaL
8ggJ
=
4eet
8ccL
8eeJ
=
8eeL
8ddJ
8ffL
8eeJ
=
4ddT
8ffL
8ffJ
=
8eeL
8eeJ
8ddL
8ddJ
=
4cc
8cccL
8bbJ
=
*-
